X:6
T:Песнь 7
M:4/4
L:1/4
Q:1/4=120
K:F
V:1 clef=treble name="Soprano"
%%MIDI program 40
V:2 clef=treble name="Alto"
%%MIDI program 40
V:3 clef=bass octave=-1 name="Tenor"
%%MIDI program 40
V:4 clef=bass octave=-2 name="Bass"
%%MIDI program 40
%%score [(1 2) (3 4)]
%%tempo { 40, 60, *80, 100, 120, 140 }
%%player_top
[V:1]c2ccABcccBcd(cB/A/)G2 |
s: "Песнь 7"
[V:2]A2AAFGAAAGAB(AG/F/)E2 |
w:От-ро-цы бла-го-чес-ти-ю со-вос-пи-та---ни,
[V:3]f2ffccffffff(fc)c2 |
[V:4]f2fffffffffff2c2 |
[V:1]EFGGGFGGGA(B/A/G)A2 |
[V:2]CDEEEDEEEF(G/F/E)F2 |
w:зло-чес-ти-ва-го ве-ле-ни-я не-брег---ше,
[V:3]ccccccccccc2c2 |
[V:4]ccccccccccc2f2 |
[V:1]c2ccABcccBcdcB/A/G2 |
[V:2]A2AAFGAAAGABAG/F/E2 |
w:ог-нен-на-го пре-ще0ни-я не у-бо-я-ше-ся,
[V:3]f2ffccfffffffcc2 |
[V:4]f2ffffffffffffc2 |
[V:1]EEEFGGFGA2GA(B/A/G)A2 |
[V:2]^CCCDEEDEF2EF(G/F/E)F2 |
w:но по-сре-де пла-ме-не сто-я-ще, по-я---ху:
[V:3]AAAAAAAcc2ccc2c2 |
[V:4]AAAAAAd"<""<(\u266e)"cf2ccc2f2 |
[V:1](AB)(cB)A2B2 | G2GAB2G2A4 |]
[V:2](FG)(AG)^F2G2 | E2EFG2E2F4 |]
w:от--цев * Бо-же, Бла-го-сло-вен е-си.
[V:3]c2(fd)d2d2 | c2ccc2c2c4 |]
[V:4]f2(fg)d2g2 | c2ccc2c2f4 |]
%%newpage
